symbolia-neutral/scalable/apps/input-keyboard.svg

<svg xmlns="http://www.w3.org/2000/svg" height="24" viewBox="0 0 24 24" width="24"><path fill="#afafaf" d="M20 5H4c-1.1 0-1.99.9-1.99 2L2 17c0 1.1.9 2 2 2h16c1.1 0 2-.9 2-2V7c0-1.1-.9-2-2-2zm-9 3h2v2h-2V8zm0 3h2v2h-2v-2zM8 8h2v2H8V8zm0 3h2v2H8v-2zm-1 2H5v-2h2v2zm0-3H5V8h2v2zm8 7H9c-.55 0-1-.45-1-1s.45-1 1-1h6c.55 0 1 .45 1 1s-.45 1-1 1zm1-4h-2v-2h2v2zm0-3h-2V8h2v2zm3 3h-2v-2h2v2zm0-3h-2V8h2v2z"/></svg>

<?xml version="1.0" encoding="UTF-8"?><!DOCTYPE svg PUBLIC "-//W3C//DTD SVG 1.1//EN" "http://www.w3.org/Graphics/SVG/1.1/DTD/svg11.dtd"><svg xmlns="http://www.w3.org/2000/svg" xmlns:xlink="http://www.w3.org/1999/xlink" version="1.1" id="mdi-keyboard" width="24" height="24" viewBox="0 0 24 24"><path fill="#afafaf" d="M19,10H17V8H19M19,13H17V11H19M16,10H14V8H16M16,13H14V11H16M16,17H8V15H16M7,10H5V8H7M7,13H5V11H7M8,11H10V13H8M8,8H10V10H8M11,11H13V13H11M11,8H13V10H11M20,5H4C2.89,5 2,5.89 2,7V17A2,2 0 0,0 4,19H20A2,2 0 0,0 22,17V7C22,5.89 21.1,5 20,5Z" /></svg>
